icon/lg/nuxt.svg

<?xml version="1.0" encoding="UTF-8"?>
<svg viewBox="0 0 512 95" version="1.1" xmlns="http://www.w3.org/2000/svg" xmlns:xlink="http://www.w3.org/1999/xlink" preserveAspectRatio="xMidYMid" height="1em" width="1em">
  <g>
    <path d="M483.174437,19.0146984 C499.040549,19.0146984 509.757382,27.9483071 510.411971,41.7211508 L496.866461,41.7211508 C496.228414,35.3099561 491.10513,30.9998278 483.148442,30.9998278 C475.751819,30.9998278 471.143699,34.3647007 471.143699,39.5123252 C471.143699,44.1594913 474.466566,46.4902987 479.217035,48.1134478 L480.256153,48.4510202 L480.256153,48.4510202 L481.334829,48.7704472 L481.334829,48.7704472 L482.448919,49.0752463 L482.448919,49.0752463 L484.177389,49.5127124 L484.177389,49.5127124 L485.962229,49.9370521 L485.962229,49.9370521 L489.024242,50.6473595 L489.024242,50.6473595 L490.845553,51.0835541 L490.845553,51.0835541 L492.496119,51.5020589 L492.496119,51.5020589 L493.594105,51.7980851 L493.594105,51.7980851 L494.686866,52.1105423 C494.868399,52.1641216 495.049597,52.2184861 495.230399,52.2736858 L496.309995,52.6153095 L496.309995,52.6153095 L497.377265,52.9793908 C497.553959,53.0420765 497.73002,53.1057983 497.90539,53.1706065 L498.948846,53.5728947 C506.188354,56.4857949 512,61.4923102 512,72.3133963 C512,85.9782445 500.526963,94.2851489 484.022804,94.2851489 C466.979849,94.2851489 455.832925,84.1905303 455.08381,68.7377314 L455.067268,68.7275699 L468.686035,68.7275699 C469.439876,76.9470382 475.01452,82.1818626 484.018077,82.1818626 C492.057474,82.1818626 497.636844,79.0327442 497.636844,72.5137904 C497.636844,67.5333641 493.614848,65.2158637 488.111064,63.4889141 L486.991302,63.1507842 L486.991302,63.1507842 L485.836543,62.8247181 L485.836543,62.8247181 L483.440091,62.1940403 L483.440091,62.1940403 L479.061572,61.0823561 L479.061572,61.0823561 L477.789398,60.7449017 L477.789398,60.7449017 L476.516096,60.3918795 L476.516096,60.3918795 L475.24618,60.0196053 C474.823941,59.8918958 474.403019,59.7603636 473.984167,59.6243947 L472.734572,59.2025635 C464.455375,56.2934337 457.30516,51.3639871 457.30516,39.5019274 C457.314612,27.4142378 467.927467,19.0146984 483.174437,19.0146984 Z M260.621144,40.4481281 L260.621144,70.5162295 C260.621144,77.769883 265.125286,82.8147111 271.876773,82.8147111 C279.273396,82.8147111 284.417949,77.1379798 284.417949,69.3601821 L284.417949,40.4481281 L297.601898,40.4481281 L297.601898,93.4332375 L284.417949,93.4332375 L284.417949,85.2137692 C281.416763,90.9982596 275.30805,94.2551371 267.592403,94.2551371 C255.372614,94.2551371 247.437195,85.6348805 247.437195,73.2286398 L247.437195,40.4481281 L260.621144,40.4481281 Z M187.733683,19.847941 L220.214076,71.7800359 L220.214076,19.847941 L234.361949,19.847941 L234.361949,93.4332375 L219.140266,93.4332375 L186.555185,41.609138 L186.555185,93.4332375 L172.407548,93.4332375 L172.407548,19.847941 L187.733683,19.847941 Z M446.593053,19.847941 L446.593053,72.4067402 C446.593053,86.6006952 439.626521,93.4332375 427.836823,93.4332375 L411.372837,93.4332375 L411.372837,80.9343618 L428.20311,80.9343618 C429.327963,80.9343618 430.410281,80.4955269 431.206659,79.7142734 C432.003036,78.9327835 432.449669,77.8731522 432.449669,76.7681486 L432.449669,19.847941 L446.593053,19.847941 Z M384.20856,24.4702399 L384.20856,40.4469465 L399.216853,40.4469465 L399.216853,51.2762649 L384.20856,51.2762649 L384.20856,77.5787051 C384.20856,78.4620463 384.565394,79.3094677 385.203442,79.9345179 C385.839126,80.559568 386.701672,80.9114393 387.60439,80.9128572 L399.216853,80.9128572 L399.216853,93.4117329 L390.532319,93.4117329 C378.740258,93.4117329 371.024611,86.6819872 371.024611,74.9178112 L371.024611,51.2866627 L360.414119,51.2866627 L360.414119,40.4469465 L367.07108,40.4469465 C370.176244,40.4469465 371.984045,38.6337104 371.984045,35.6334697 L371.984045,24.4702399 L384.20856,24.4702399 Z M320.002088,39.6103955 L330.829988,54.8576013 L341.544458,39.6103955 L356.018682,39.6103955 L337.900499,64.947021 L357.41057,92.5955049 L343.477506,92.5955049 L330.829988,74.9338805 L318.180108,92.5955049 L304.135976,92.5955049 L323.648411,64.947021 L305.638932,39.6103955 L320.002088,39.6103955 Z" fill="#000000"/>
    <g>
      <path d="M62.3285402,5.10313847 C58.3712285,-1.70104616 48.4781856,-1.70104616 44.5208739,5.10313847 L1.39276957,79.258424 C-2.56449487,86.0628449 2.38207386,94.5680166 10.2966264,94.5680166 L43.9648274,94.5680166 C40.58294,91.6124393 39.3304766,86.4993166 41.8897555,82.1123863 L74.5530556,26.12231 L62.3285402,5.10313847 Z" fill="#80EEC0"/>
      <path d="M89.655401,21.3693296 C92.9304746,15.8022479 101.117804,15.8022479 104.392878,21.3693296 L140.085012,82.0417285 C143.360086,87.6088101 139.266421,94.5677803 132.716274,94.5677803 L61.3320047,94.5677803 C54.7820938,94.5677803 50.6881927,87.6088101 53.9632663,82.0417285 L89.655401,21.3693296 Z" fill="#00DC82"/>
    </g>
  </g>
</svg>

<svg width="512" height="95" xmlns="http://www.w3.org/2000/svg" preserveAspectRatio="xMidYMid"><path d="M483.174 19.015c15.867 0 26.583 8.933 27.238 22.706h-13.546C496.228 35.31 491.106 31 483.148 31c-7.396 0-12.004 3.365-12.004 8.512 0 4.647 3.323 6.978 8.073 8.601l1.04.338 1.078.32 1.114.304 1.728.438 1.785.424 3.062.71 1.822.437 1.65.418 1.098.296 1.093.313c.181.053.363.107.543.163l1.08.341 1.067.364c.177.063.353.127.528.192l1.044.402c7.24 2.913 13.051 7.92 13.051 18.74 0 13.665-11.473 21.972-27.977 21.972-17.043 0-28.19-10.094-28.94-25.547l-.016-.01h13.619c.754 8.219 6.329 13.454 15.332 13.454 8.04 0 13.619-3.15 13.619-9.668 0-4.98-4.022-7.298-9.526-9.025l-1.12-.338-1.154-.326-2.397-.631-4.378-1.112-1.273-.337-1.273-.353-1.27-.372c-.422-.128-.843-.26-1.262-.396l-1.25-.421c-8.279-2.91-15.429-7.839-15.429-19.701.01-12.088 10.622-20.487 25.87-20.487ZM260.621 40.448v30.068c0 7.254 4.504 12.299 11.256 12.299 7.396 0 12.54-5.677 12.54-13.455V40.448h13.185v52.985h-13.184v-8.22c-3.001 5.785-9.11 9.042-16.826 9.042-12.22 0-20.155-8.62-20.155-21.026v-32.78h13.184Zm-72.887-20.6 32.48 51.932V19.848h14.148v73.585H219.14L186.555 41.61v51.824h-14.147V19.848h15.326Zm258.86 0v52.559c0 14.194-6.967 21.026-18.757 21.026h-16.464V80.934h16.83a4.293 4.293 0 0 0 3.004-1.22 4.126 4.126 0 0 0 1.243-2.946v-56.92h14.143Zm-62.385 4.622v15.977h15.008v10.83h-15.008v26.302c0 .883.356 1.73.994 2.356a3.43 3.43 0 0 0 2.401.978h11.613v12.499h-8.685c-11.792 0-19.507-6.73-19.507-18.494V51.287h-10.61v-10.84h6.656c3.105 0 4.913-1.813 4.913-4.814V24.47h12.225Zm-64.207 15.14 10.828 15.248 10.714-15.248h14.475L337.9 64.947l19.51 27.649h-13.932L330.83 74.934l-12.65 17.662h-14.044l19.512-27.649-18.01-25.337h14.364Z"/><path d="M62.329 5.103C58.37-1.7 48.479-1.7 44.52 5.103L1.393 79.258c-3.957 6.805.99 15.31 8.904 15.31h33.668c-3.382-2.956-4.635-8.069-2.075-12.456l32.663-55.99L62.33 5.103Z" fill="#80EEC0"/><path d="M89.655 21.37c3.275-5.568 11.463-5.568 14.738 0l35.692 60.672c3.275 5.567-.819 12.526-7.369 12.526H61.332c-6.55 0-10.644-6.96-7.369-12.526l35.692-60.673Z" fill="#00DC82"/></svg>
